X: 14976
T: General Longstreet's
R: reel
M: 4/4
K: Dmajor
|:D2 F2 A2 d2|{g}fefb afdf|gdBg fdAf|efge cAGE|
D2 F2 A2 d2|{g}fefb afdf|gdBg fdAf|eage d2:|
|:afdf AdFA|bgdg BdGB|afdf AdFA|gecA gecA|
afdf AdFa|bgdf BdGB|cbag fedc|d2 f2 d2:|

